!!!!SEGMENT: pl-kk--kk-i-70--002-001_anonim--missa-6ta-kyrie.krn
!!!cenid: 17xx:2297
!!!COM: Anonim
!!!COM-rismID: pe30004985
!!!CDT:
!!!CNT:
!!!OPR: Missa 6ta
!!!OTL: Kyrie
!!!OMV: 001
!!!PDT:
!!!AGN: Sacred; Mass
!!!YEC: Copyright 2022 Narodowy Instytut Fryderyka Chopina (https://polishscores.org)
!!!YEM: License CC-BY-4.0 (https://creativecommons.org/licenses/by/4.0)
!!!SMS-siglum: PL-Kk
!!!SMS-shelfmark: Kk.I.70
!!!SMS-shelfwork: 002-001 M
!!!SMS-variant: Baſso: PL-Kk Kk.I.70:018
!!!SMS-altvar: Baſso: PL-Kk Kk.I.70:023
!!!NIFC-rismSourceID: 1001154790
!!!NIFC-rismChildID: 1001154792
!!!NIFC-islandoraID: pl-kk:15771
!!!URL-pdf-islandora: https://repozytorium.nifc.pl/islandora/object/pl-kk%3A15771/datastream/PDF/view
!!!URL-scan: https://polish.musicsources.pl/pl/lokalizacje/galeria/rekopisy/7335/1 @EN{Scan on Polish Music Sources Website} @PL{Skany w portalu Dziedzictwo Muzyki Polskiej w otwartym dostępie}
!!!IIIF:
!!!ONB-nifc: UWAGA: w zbiorze Msza 5ta i 6ta. Części Mszy: 1. Kyrie, 2. Et in terra, 3. Sanctus, 4. Agnus Dei
!!!AIN: 1 alto 1 empty 1 tenor 1 vox
!!!key:
**kern	**text	**dynam	**kern	**text	**dynam	**kern	**text	**dynam	**kern	**text	**dynam
*part4	*	*	*part3	*	*	*part2	*	*	*part1	*	*
*staff4	*	*	*staff3	*	*	*staff2	*	*	*staff1	*	*
*Iempty	*	*	*Itenor	*	*	*Ialto	*	*	*Ivox	*	*
*I"Baſso	*	*	*I"Tenore	*	*	*I"Alto.	*	*	*I"Canto	*	*
*I'B	*	*	*I'T	*	*	*I'A	*	*	*I'S	*	*
*clefF4	*	*	*clefC4	*	*	*clefC3	*	*	*clefC1	*	*
*k[]	*	*	*k[]	*	*	*k[]	*	*	*k[]	*	*
*a:	*	*	*a:	*	*	*a:	*	*	*a:	*	*
*M4/4	*	*	*M4/4	*	*	*M4/4	*	*	*M4/4	*	*
*met(c)	*	*	*met(c)	*	*	*met(c)	*	*	*met(c)	*	*
=1	=1	=1	=1	=1	=1	=1	=1	=1	=1	=1	=1
!LO:TX:a:t=adagio	!	!	!	!	!	!	!	!	!	!	!
!LO:TX:t=P:problem=mixed beam	!	!	!LO:TX:a:t=adagio	!	!	!LO:TX:a:t=adagio	!	!	!LO:TX:a:t=Adagio	!	!LO:DY:a:t=fo
8AA/L	Ky-	.	4.c\	Ky-	.	4.e\	Ky-	.	4.a\	Ky-	f
!	!	!LO:DY:a:t=fo	!	!	!	!	!	!	!	!	!
8A\J	.	f	.	.	.	.	.	.	.	.	.
8E\	.	.	.	.	.	.	.	.	.	.	.
8C/	-ri-	.	8c\	-ri-	.	8e\	-ri-	.	8a\	-ri-	.
8AA/	-e	.	8c\	-e	.	8e\	-e	.	8a\	-e	.
!	!	!LO:DY:a:rj:t=p&colon;	!	!	!LO:DY:a:rj	!	!	!LO:DY:a:rj:t=p&colon;	!	!	!LO:DY:a:rj:t=p&colon;
8A\	e-	p	8c\	e-	p	8e\	e-	p	8a\	e-	p
8G#X\	-lei-	.	8d\	-lei-	.	8f\	-lei-	.	8b\	-lei-	.
8A\	-son	.	8c\	-son	.	8e\	-son	.	8a\	-son	.
=2	=2	=2	=2	=2	=2	=2	=2	=2	=2	=2	=2
!	!	!LO:DY:a:rj	!	!	!LO:DY:a	!	!	!LO:DY:a:rj	!	!	!LO:DY:a:rj
8E\L	Ky-	f	4.B\	Ky-	f	4.e\	Ky-	f	4.g#X\	Ky-	f
8G#X\J	.	.	.	.	.	.	.	.	.	.	.
8B\	.	.	.	.	.	.	.	.	.	.	.
8G#\	-ri-	.	8B\	-ri-	.	8e\	-ri-	.	8g#\	-ri-	.
!	!	!	!	!	!LO:DY:a:t=p&colon;	!	!	!	!	!	!
8E\	-e	.	8B\	-e	p	8e\	-e	.	8g#\	-e	.
!	!	!	!	!	!	!	!	!LO:DY:a:rj	!	!	!LO:DY:a:rj
8r	.	.	8d\	e-	.	8e\	e-	p	8b\	e-	p
4r	.	.	8c\	-lei-	.	8e\	-lei-	.	8a\	-lei-	.
.	.	.	8B\	-son	.	8e\	-son	.	8g#\	-son	.
=3	=3	=3	=3	=3	=3	=3	=3	=3	=3	=3	=3
!LO:TX:t=P:problem=mixed beam	!	!	!	!	!LO:DY:a:rj:t=f&colon;	!	!	!LO:DY:a:rj	!	!	!
8A\L	Ky-	.	4.c\	Ky-	f	4.e\	Ky-	f	4.a\	Ky-	.
8AA/J	.	.	.	.	.	.	.	.	.	.	.
8C/	.	.	.	.	.	.	.	.	.	.	.
8E/	-ri-	.	8c\	-ri-	.	8e\	-ri-	.	8a\	-ri-	.
8A\	-e	.	8c\	-e	.	8e\	-e	.	4a\	-e	.
!	!	!LO:DY:a:rj:t=p&colon;	!	!	!LO:DY:a:rj:t=p&colon;	!	!	!LO:DY:a:rj	!	!	!
8c\	e-	p	8e\	e-	p	8a\	e-	p	.	.	.
8B\	-lei-	.	8d\	-lei-	.	8g#X\	-lei-	.	4r	.	.
8A\	-son	.	8c\	-son	.	8a\	-son	.	.	.	.
!LO:LB:g=original	!	!	!	!	!	!LO:LB:g=original	!	!	!LO:LB:g=original	!	!
=4	=4	=4	=4	=4	=4	=4	=4	=4	=4	=4	=4
*2\right	*	*	*	*	*	*	*	*	*2\right	*	*
!	!	!	!	!	!	!	!	!	!	!	!LO:DY:a:rj:t=p&colon;
2E\	e-	.	4B\	e-	.	4g#X\	e-	.	2ee\	e-	p
.	.	.	4c\	.	.	4a\	.	.	.	.	.
!	!	!	!LO:LB:g=original	!	!	!	!	!	!	!	!
2E\	-lei-	.	4B\	-lei-	.	4g#\	-lei-	.	2ee\	-lei-	.
.	.	.	4c\	.	.	4a\	.	.	.	.	.
=5	=5	=5	=5	=5	=5	=5	=5	=5	=5	=5	=5
*	*	*	*2\right	*	*	*2\right	*	*	*	*	*
2E\	-son	.	2B\	-son	.	2g#X\	-son	.	2ee\	-son	.
2r;	.	.	2r;	.	.	2r;	.	.	2r;	.	.
=6||	=6||	=6||	=6||	=6||	=6||	=6||	=6||	=6||	=6||	=6||	=6||
*M2/2	*	*	*M2/2	*	*	*M2/2	*	*	*M2/2	*	*
*met(c|)	*	*	*met(c|)	*	*	*met(c|)	*	*	*met(c|)	*	*
!LO:TX:a:t=Allabreve mod&colon;	!	!LO:DY:b:rj:t=fo&colon;	!LO:TX:a:t=allô	!	!LO:DY:a:t=fo	!LO:TX:a:t=allo	!	!LO:DY:b:rj:t=fo	!LO:TX:a:t=alla breve	!	!LO:DY:b:rj:t=f&colon;
4.AA/	Ky-	f	4.c\	Ky-	f	4.e\	Ky-	f	4.a\	Ky-	f
8A\	-ri-	.	8c\	-ri-	.	8e\	-ri-	.	8cc\	-ri-	.
8G#X\L	-e	.	8B\L	-e	.	8d\L	-e	.	4ee\	-e	.
8A\J	.	.	8A\J	.	.	8c\J	.	.	.	.	.
8G#\L	e-	.	8G#X\L	e-	.	8B\L	e-	.	4ee\	e-	.
8A\J	.	.	8A\J	.	.	8c\J	.	.	.	.	.
=7	=7	=7	=7	=7	=7	=7	=7	=7	=7	=7	=7
!LO:SIC:v:o=4G\	!	!	!	!	!	!	!	!	!	!	!
4G#\	-lei-	.	4d\	-lei-	.	4f\	-lei-	.	4b\	-lei-	.
4A\	-son	.	8c\	-son	.	4e\	-son	.	8a\	-son	.
.	.	.	8e\	e-	.	.	.	.	8cc\	e-	.
2r	.	.	4d\	-lei-	.	2r	.	.	4b\	-lei-	.
.	.	.	4c\	-son	.	.	.	.	4a\	-son	.
=8	=8	=8	=8	=8	=8	=8	=8	=8	=8	=8	=8
!	!	!LO:DY:a:rj:t=p&colon;	!	!	!LO:DY:a:rj:t=p&colon;	!	!	!LO:DY:a:rj:t=p.	!	!	!LO:DY:a:rj
4.AA/	Ky-	p	4.c\	Ky-	p	4.e\	Ky-	p	4.a\	Ky-	p
8A\	-ri-	.	8c\	-ri-	.	8e\	-ri-	.	8cc\	-ri-	.
8G#X\L	-e	.	8B\L	-e	.	8d\L	-e	.	4ee\	-e	.
8A\J	.	.	8A\J	.	.	8c\J	.	.	.	.	.
8G#\L	e-	.	8B\L	e-	.	8B\L	e-	.	4ee\	e-	.
8A\J	.	.	8A\J	.	.	8c\J	.	.	.	.	.
=9	=9	=9	=9	=9	=9	=9	=9	=9	=9	=9	=9
4E\	-lei-	.	4B\	-lei-	.	4d\	-lei-	.	4g#X\	-lei-	.
4AA/	-son	.	8A\	-son	.	4c\	-son	.	8a\	-son	.
.	.	.	8c\	e-	.	.	.	.	8ee\	e-	.
!	!	!	!LO:LB:g=original	!	!	!	!	!	!LO:LB:g=original	!	!
2r	.	.	4c\	-lei-	.	2r	.	.	4ee\	-lei-	.
.	.	.	4A\	-son	.	.	.	.	4cc\	-son	.
!LO:LB:g=original	!	!	!	!	!	!LO:LB:g=original	!	!	!	!	!
=10	=10	=10	=10	=10	=10	=10	=10	=10	=10	=10	=10
!	!	!LO:DY:a:t=fo	!	!	!LO:DY:a:rj:t=fo	!	!	!LO:DY:a:rj	!	!	!LO:DY:a:rj:t=f&colon;
8AA/L	Ky-	f	8c\L	Ky-	f	4.e\	Ky-	f	8ee\L	Ky-	f
8BB/J	.	.	8d\J	.	.	.	.	.	8dd\J	.	.
8C/L	-ri-	.	8e\L	-ri-	.	.	.	.	8cc\L	-ri-	.
8BB/J	.	.	8d\J	.	.	8e\	-ri-	.	8dd\J	.	.
8AA/L	-e	.	8c\L	-e	.	4e\	-e	.	8ee\L	-e	.
8BB/J	.	.	8B\J	.	.	.	.	.	8dd\J	.	.
8C/L	e-	.	8A\L	e-	.	4e\	e-	.	4ee\	e-	.
8D/J	.	.	8B\J	.	.	.	.	.	.	.	.
=11	=11	=11	=11	=11	=11	=11	=11	=11	=11	=11	=11
4E\	-lei-	.	4A\	-lei-	.	4e\	-lei-	.	4cc\	-lei-	.
4E\	-son	.	4G#X\	-son	.	4e\	-son	.	4b\	-son	.
2r	.	.	2r	.	.	2r	.	.	2r	.	.
=12	=12	=12	=12	=12	=12	=12	=12	=12	=12	=12	=12
!LO:TX:a:i:t=meza voce	!	!	!	!	!	!	!	!	!	!	!LO:DY:a:rj:t=p&colon;
8C\L	Chri-	.	1r	.	.	1r	.	.	8e/L	Chri-	p
8E\J	.	.	.	.	.	.	.	.	8g/J	.	.
8G\	-ste	.	.	.	.	.	.	.	8cc\	-ste	.
8c\	e-	.	.	.	.	.	.	.	8ee\	e-	.
8d\L	-lei-	.	.	.	.	.	.	.	8ff\L	-lei-	.
8c\	.	.	.	.	.	.	.	.	8ee\J	.	.
8B\	.	.	.	.	.	.	.	.	4dd\	.	.
8G\J	.	.	.	.	.	.	.	.	.	.	.
=13	=13	=13	=13	=13	=13	=13	=13	=13	=13	=13	=13
!	!	!	!	!	!LO:DY:a:rj:t=p&colon;	!LO:TX:a:i:t=meza voce	!	!	!	!	!
4c\	-son	.	8E/L	Chri-	p	8G/L	Chri-	.	4ee\	-son	.
.	.	.	8G/J	.	.	8c/J	.	.	.	.	.
4r	.	.	8c\	-ste	.	8e\	-ste	.	4r	.	.
.	.	.	8e\	e-	.	8g\	e-	.	.	.	.
2r	.	.	8e\L	-lei-	.	8g\L	-lei-	.	2r	.	.
.	.	.	8d\	.	.	8f\	.	.	.	.	.
.	.	.	8d\	.	.	8f\	.	.	.	.	.
.	.	.	8c#X\J	.	.	8e\J	.	.	.	.	.
!	!	!	!	!	!	!	!	!	!LO:LB:g=original	!	!
=14	=14	=14	=14	=14	=14	=14	=14	=14	=14	=14	=14
8r	.	.	4d\	-son	.	4f\	-son	.	8r	.	.
8G\	Chri-	.	.	.	.	.	.	.	8b\	Chri-	.
8B\	-ste	.	4r	.	.	4r	.	.	8dd\	-ste	.
8d\	e-	.	.	.	.	.	.	.	8ff\	e-	.
8B\L	-lei-	.	2r	.	.	2r	.	.	8dd\L	-lei-	.
8d\	.	.	.	.	.	.	.	.	8ff\J	.	.
8B\	.	.	.	.	.	.	.	.	8dd\L	.	.
8A\J	.	.	.	.	.	.	.	.	8cc\J	.	.
!LO:LB:g=original	!	!	!LO:LB:g=original	!	!	!	!	!	!	!	!
=15	=15	=15	=15	=15	=15	=15	=15	=15	=15	=15	=15
4G\	-son	.	8r	.	.	8r	.	.	4b\	-son	.
.	.	.	8B\	Chri-	.	8d\	Chri-	.	.	.	.
4r	.	.	8B\	-ste	.	8d\	-ste	.	4r	.	.
.	.	.	8c\	e-	.	8e\	e-	.	.	.	.
!	!	!	!	!	!	!LO:LB:g=original	!	!	!	!	!
2r	.	.	8d\L	-lei-	.	8f\L	-lei-	.	2r	.	.
.	.	.	8c\	.	.	8e\	.	.	.	.	.
.	.	.	8d\	.	.	8f\	.	.	.	.	.
.	.	.	8B\J	.	.	8d\J	.	.	.	.	.
=16	=16	=16	=16	=16	=16	=16	=16	=16	=16	=16	=16
!	!	!LO:DY:a:t=fo	!	!	!	!	!	!	!	!	!
4r	.	f	4c\	-son	.	4e\	-son	.	4r	.	.
!	!	!	!	!	!LO:DY:a:rj:t=fo	!	!	!LO:DY:a:rj:t=fo	!	!	!LO:DY:a:t=for
4C/	Chri-	.	4c\	Chri-	f	4e\	Chri-	f	4g\	Chri-	f
8E\L	-ste	.	8e\L	-ste	.	8g\L	-ste	.	4g\	-ste	.
8G\J	.	.	8c\J	.	.	8e\J	.	.	.	.	.
8E\L	e-	.	8e\L	e-	.	8g\L	e-	.	4g\	e-	.
8C\J	.	.	8c\J	.	.	8e\J	.	.	.	.	.
=17	=17	=17	=17	=17	=17	=17	=17	=17	=17	=17	=17
4G\	-lei-	.	4c\	-lei-	.	4e\	-lei-	.	4g\	-lei-	.
4GG/	-son	.	4B\	-son	.	4d\	-son	.	4g\	-son	.
2r	.	.	2r	.	.	2r	.	.	2r	.	.
=18	=18	=18	=18	=18	=18	=18	=18	=18	=18	=18	=18
!	!	!	!	!	!LO:DY:a:rj	!	!	!LO:DY:a:rj	!	!	!
4.G#X\	Ky-	.	4.d\	Ky-	f	4.e\	Ky-	f	4.b\	Ky-	.
8A\	-ri-	.	8c\	-ri-	.	8e\	-ri-	.	8cc\	-ri-	.
8B\	-e	.	8B\	-e	.	8e\	-e	.	8dd\	-e	.
8G#\	e-	.	8B\	e-	.	8e\	e-	.	8b\	e-	.
8F\L	-lei-	.	8c\L	-lei-	.	4e\	-lei-	.	8a\L	-lei-	.
8E\J	.	.	8B\J	.	.	.	.	.	8g#X\J	.	.
!	!	!	!	!	!	!	!	!	!LO:LB:g=original	!	!
=19	=19	=19	=19	=19	=19	=19	=19	=19	=19	=19	=19
4A\	-son	.	4c\	-son	.	4.e\	-son	.	4a\	-son	.
4r	.	.	4c\	e-	.	.	.	.	4a\	e-	.
.	.	.	.	.	.	8e\	e-	.	.	.	.
!	!	!	!LO:LB:g=original	!	!	!	!	!	!	!	!
2r	.	.	8c\L	-lei-	.	8e\L	-lei-	.	8a\L	-lei-	.
.	.	.	8B\J	.	.	8d\J	.	.	8g#X\J	.	.
.	.	.	8B\L	-son	.	8d\L	-son	.	8g#\L	-son	.
.	.	.	8A\J	.	.	8c\J	.	.	8a\J	.	.
!	!	!	!	!	!	!LO:LB:g=original	!	!	!	!	!
=20	=20	=20	=20	=20	=20	=20	=20	=20	=20	=20	=20
!	!	!LO:DY:a:rj:t=p&colon;	!	!	!LO:DY:a:rj	!	!	!LO:DY:a:rj:t=p&colon;	!	!	!LO:DY:a:rj:t=p.
4.G#X\	Ky-	p	4.d\	Ky-	p	4.e\	Ky-	p	4.b\	Ky-	p
8A\	-ri-	.	8c\	-ri-	.	8e\	-ri-	.	8cc\	-ri-	.
!LO:LB:g=original	!	!	!	!	!	!	!	!	!	!	!
8B\	-e	.	8B\	-e	.	8e\	-e	.	8dd\	-e	.
8G#X\	e-	.	8d\	e-	.	8e\	e-	.	8b\	e-	.
8F\L	-lei-	.	8c\L	-lei-	.	4e\	-lei-	.	8a\L	-lei-	.
8E\J	.	.	8B\J	.	.	.	.	.	8g#X\J	.	.
=21	=21	=21	=21	=21	=21	=21	=21	=21	=21	=21	=21
4A\	-son	.	4c\	-son	.	4.e\	-son	.	4a\	-son	.
4r	.	.	4c\	e-	.	.	.	.	4a\	e-	.
.	.	.	.	.	.	8e\	e-	.	.	.	.
2r	.	.	8c\L	-lei-	.	8e\L	-lei-	.	8a\L	-lei-	.
.	.	.	8B\J	.	.	8d\J	.	.	8g#X\J	.	.
.	.	.	8B\L	-son	.	8d\L	-son	.	8g#\L	-son	.
.	.	.	8A\J	.	.	8c\J	.	.	8a\J	.	.
=22	=22	=22	=22	=22	=22	=22	=22	=22	=22	=22	=22
!	!	!LO:DY:a:rj:t=fo&colon;	!	!	!LO:DY:a:rj	!	!	!LO:DY:a:rj	!	!	!LO:DY:a:rj:t=f.
4.G#X\	Ky-	f	4.d\	Ky-	f	4.f\	Ky-	f	4.b\	Ky-	f
8G#\	-ri-	.	8d\	-ri-	.	8f\	-ri-	.	8b\	-ri-	.
4G#\	-e	.	4d\	-e	.	4f\	-e	.	4b\	-e	.
4G#\	e-	.	4d\	e-	.	4f\	e-	.	4b\	e-	.
=23	=23	=23	=23	=23	=23	=23	=23	=23	=23	=23	=23
4A\	-lei-	.	2c\	-lei-	.	4e\	-lei-	.	2a\	-lei-	.
4F\	.	.	.	.	.	4a\	.	.	.	.	.
4D\	.	.	4d\	.	.	4f\	.	.	4b\	.	.
4E\	.	.	4B\	.	.	4e\	.	.	4g#X\	.	.
!	!	!	!	!	!	!	!	!	!LO:LB:g=original	!	!
=24	=24	=24	=24	=24	=24	=24	=24	=24	=24	=24	=24
2AA/	-son	.	2c\	-son	.	2e\	-son	.	2a\	-son	.
2AA/	e-	.	2c\	e-	.	2e\	e-	.	2a\	e-	.
=25	=25	=25	=25	=25	=25	=25	=25	=25	=25	=25	=25
1AA	-lei-	.	1d	-lei-	.	1f	-lei-	.	1a	-lei-	.
=26	=26	=26	=26	=26	=26	=26	=26	=26	=26	=26	=26
1AA	-son	.	1c#X	-son.	.	1e	-son	.	2a\	-son	.
!	!	!	!	!	!	!	!	!	!LO:TX:t=P:problem=fermata above/below na kresce taktowej	!	!
.	.	.	.	.	.	.	.	.	2r	.	.
==	==	==	==	==	==	==	==	==	==	==	==
*-	*-	*-	*-	*-	*-	*-	*-	*-	*-	*-	*-
!!!system-decoration: [(s1,s2,s3,s4)]
!!!ENC: Andrzej Kubiczek
!!!END: 2021-08-06
!!!ENC: Andrzej Gręziak
!!!END: 2021-07-09
